**kern	**kern	**dynam
*part1	*part1	*part1
*staff2	*staff1	*
*I"Piano	*	*
*clefF4	*clefG2	*
*k[f#]	*k[f#]	*
=1	=1	=1
*^	*^	*
!	!	!	!	!LO:DY:a
(4c	2.E	(4ee	8eeL	p
.	.	.	8e	.
4B	.	4dd	8dd	.
.	.	.	8e	.
4A)	.	4cc)	8cc	.
.	.	.	8eJ	.
=	=	=	=	=
[2.E	2.E	2.b	8g#XL	.
.	.	.	8e	.
.	.	.	8g#	.
.	.	.	8e	.
.	.	.	8g#	.
.	.	.	8eJ	.
*v	*v	*	*	*
*	*v	*v	*
=	=	=
!	!	!LO:DY:a
2E]	8g#XL	>
.	8e	.
.	8g#	.
.	8e	.
4r	8g# 8b	]]
.	8eJ	.
=	=	=
2EE 2BB 2E	8gnL 8b	.
.	8B	.
.	8g 8b	.
.	8BJ	.
4E 4G	8eL 8g	.
.	8BJ	.
=	=	=
*^	*	*
2F# 2A	2.E	8f#L 8a	.
.	.	8B	.
.	.	8f# 8a	.
.	.	8BJ	.
4A 4c	.	8aL 8cc	.
.	.	8BJ	.
=	=	=	=
2G 2B	2.E	8gL 8b	.
.	.	8e	.
.	.	8g 8b	.
.	.	8eJ	.
4B 4d	.	8bL 8dd	.
.	.	8eJ	.
=	=	=	=
2A 2c	2E	8aL 8cc	.
.	.	8e	.
.	.	8a 8cc	.
.	.	8eJ	.
*v	*v	*	*
4AA 4E	8ccL 8ee	.
.	8eJ	.
=	=	=
*-	*-	*-
!!!system-decoration: {(s1,s2)}
